X:1
T:24 Arie antiche
T:O del mio dolce ardor, dell'opera Paride ed Elena
T:O del mio dolce ardor
T:Aria (24 Arie antiche)
T:Christoph Willibald Gluck (1714-1787) Alessandro Parisotti (1853-1913)
T:Low voices Dell'opera Paride ed Elena Ranieri de' Calzabigi (1714-1795)
T:Creative Commons copyright waiver (CC0 1.0 Universal)
T:Creative Commons copyright waiver (CC0 1.0 Universal)
T:Creative Commons copyright waiver (CC0 1.0 Universal)
T:Creative Commons copyright waiver (CC0 1.0 Universal)
T:Creative Commons copyright waiver (CC0 1.0 Universal)
T:Creative Commons copyright waiver (CC0 1.0 Universal)
C:Christoph Willibald Gluck (1714-1787)
Z:Ranieri de' Calzabigi (1714-1795)
Z:Creative Commons copyright waiver (CC0 1.0 Universal)
%%score ( 1 2 ) { ( 3 5 ) | ( 4 6 ) }
L:1/8
Q:1/4=46
M:4/4
K:F
V:1 treble nm="Voice"
V:2 treble 
V:3 treble nm="Piano"
V:5 treble 
V:4 bass 
V:6 bass 
V:1
"^Moderato" z8 |!p! A2 A A!<(! A2!<)! A2 | (!>!B2 A2) z2 F2 | G3 (A/B/)!>(! (E3 F/)G/!>)! | %4
w: |O del mio dol- cear-|dor _ bra-|ma- toog- * get- * *|
!<(! F2 z A!<)![Q:1/4=44] d3 D |!>(! (!>!F3!>)![Q:1/4=45] E) E2 z2 | %6
w: to, bra- ma- toog-|get- * to,|
!p!!<(! A2 A A A2[Q:1/4=43] c2!<)! |!>(! (!>!A3 B)!>)! B2 z2[Q:1/4=46] | %8
w: L'au- ra che tu re-|spi- * ri,|
 z4 z[Q:1/4=44] G G[Q:1/4=42] (B/G/) | (=F3 E) E2[Q:1/4=46] z2[Q:1/4=44] | z4 z2!f! d2 | %11
w: al- fin re- *|spi- * ro,|al-|
!>(! (!>!B6!>)![Q:1/4=16]{ABcBAGFE)} D2 | %12
w: fin re|
!p![Q:1/4=44]!<(! (D6!<)![Q:1/4=41]!>(!{/F} (!>!E>)!>)!D) | D2 z2 z2[Q:1/4=48] F2[Q:1/4=46] | %14
w: spi- * *|ro. O-|
 !>!A3 (G/F/) (F3{GF)} (E/D/) | (C3 B,) A,2 C C |!<(! C2 D E (!>!G7/4F/4) F A!<)! | %17
w: vun- queil * guar- doio *|gi- * ro, Le tue|va- ghe sem- bian- * ze A-|
[Q:1/4=46]!>(! A/G G/[Q:1/4=45] (G/^G/) (A/F/)[Q:1/4=46] (!>!F7/4E/4)[Q:1/4=48] E=G!>)! | %18
w: mo- * rein me _ di- * pin- * ge; Il|
!<(! G c c3/2 =B/!<)!!>(! (!>!B7/4A/4)!>)! A2 | %19
w: mio pen- sier si fin- * ge|
 z2"^cresc." =B[Q:1/4=46]!<(! B (c2-[Q:1/4=44] c/d/c/d/!<)! | %20
w: Le più lie- * * * *|
!f! !>!e4- ec)!>(! !breath!G!>)! E[Q:1/4=46] | ((C2"^dim." !>!E4){DE} (D7/4C/4))[Q:1/4=44] | %22
w: * * * te spe-|ran- * * *|
 C2 z2!p![Q:1/4=48] G2 G A[Q:1/4=46] | A B B d ((!>!d c2) B) | (BA) G[Q:1/4=46] F (FE) E2 | %25
w: ze; E nel de-|si- o che co- sì _ _|m'em- * pie il pet- * to|
[Q:1/4=48] z2!p! c c D2 z2 |[Q:1/4=49] z2"^cresc." c c F2 z2 | %27
w: Cer- co te,|chia- mo te,|
 z4"^dolce" (A3[Q:1/4=10]{BAGA} B/c/) | %28
w: spe- * *|
!p![Q:1/4=44] B2 z2"^ten." A2 !fermata!z/!pp![Q:1/4=30] (G/B/)c/ | %29
w: ro e so- * *|
!<(! (d2!<)! !>!F4[Q:1/4=40]!>(!{/A} G>!>)!F)[Q:1/4=44] | %30
w: spi- * * *|
[Q:1/4=44] F2 z2"^(a piacere)"!p!!<(! (F^F)G(^G{A)}!<)! | %31
w: ro. Ah! _ _ _|
!p![Q:1/4=46]!<(! A2 A A[Q:1/4=48] A2 A2!<)! |!>(! (B2 A2)!>)! z2 F2 | G3 (A/B/) (!>!E3 F/)G/ | %34
w: O del mio dol- cear-|dor _ bra-|ma- toog- * get- * *|
!<(! F2 z[Q:1/4=44] A!<)!!>(! d3!>)! D[Q:1/4=48] | (!>!F3 E) E2 z2 | %36
w: to, bra- ma- toog-|get- * to,|
!p!!<(! A2 A A A2!<)![Q:1/4=46] c2 |!>(! (!>!A3[Q:1/4=44] B)!>)! B2[Q:1/4=46] z2 | %38
w: L'au- ra che tu re-|spi- * ri,|
[Q:1/4=48] z4[Q:1/4=44] z!<(! G[Q:1/4=40] G (B/!<)!G/) |!>(! !>!=F3 E!>)! E2 z2[Q:1/4=46] | %40
w: al- fin re- *|spi- * ro|
 z4[Q:1/4=44] z2!f![Q:1/4=40] !>!d2 | %41
w: al-|
 (!fermata!B3[Q:1/4=10]{!fermata!A!fermata!c!fermata!B!fermata!d)} !fermata!B[Q:1/4=30]!>(! (!>!AG/) z/[Q:1/4=40] (!>!FE/)!>)! z/ | %42
w: fin, al- fin _ re- *|
[Q:1/4=44]!<(! (!>!D6!<)![Q:1/4=40]!>(!{EF} (E>D))!>)![Q:1/4=42] |[Q:1/4=38] D2 z2 z4 |] %44
w: spi- * *|ro.|
V:2
 x8 | x8 | x8 | x8 | x8 | x8 | x8 | x8 | x8 | x8 | x8 | x8 | x8 | x8 | x8 | x8 | x8 | x8 | x8 | %19
 x8 | x8 | x8 | x8 | (AB) x6 | x8 | x8 | x8 | x8 | x8 | x8 | x8 | x8 | x8 | x8 | x8 | x8 | x8 | %37
 x8 | x8 | x8 | x8 | x8 | x8 | x8 |] %44
V:3
!p! z/ [A,DF]/[A,DF]/[A,DF]/ z/ [A,DF]/[A,DF]/[A,DF]/ z/ [A,^CEG]/[A,CEG]/[A,CEG]/ z/ [A,CEG]/[A,CEG]/[A,CEG]/ | %1
 z/ [A,DF]/[A,DF]/[A,DF]/ z/ [A,DF]/[A,DF]/[A,DF]/!<(! z/ [A,^CG]/[A,CG]/[A,CG]/ z/ [A,DF]/[A,DF]/!<)![A,DF]/ | %2
[K:F] z/ [A,EG]/[A,EG]/[A,EG]/ z/ [A,EG]/[A,EG]/[A,EG]/ z/ [A,DF]/[A,DF]/[A,DF]/ z/ [DFA]/[DFA]/[DFA]/ | %3
 z/ [B,EG]/[B,EG]/[B,EG]/ z/ [B,EG]/[B,EG]/[B,EG]/!>(! z/ [A,EG]/[A,EG]/[A,EG]/ z/ [A,EG]/[A,EG]/!>)![A,EG]/ | %4
!<(! z/ [A,DF]/[A,DF]/[A,DF]/ z/ [A,^CE]/[A,CE]/[A,CE]/ z/!<)! [G,DG]/[G,DG]/[G,DG]/ z/ [A,DF]/[A,DF]/[A,DF]/ | %5
!>(! z/ [=B,DF]/[B,DF]/[B,DF]/ z/ [B,DE]/[B,DE]/[B,DE]/!>)! z/ [A,^CE]/[A,CE]/[A,CE]/ z/ [A,CEA]/[A,CEA]/[A,CEA]/ | %6
!<(! z/ [A,=C^FA]/[A,CFA]/[A,CFA]/ z/ [A,CFA]/[A,CFA]/[A,CFA]/ z/ [A,CFA]/[A,CFA]/[A,CFA]/ z/ [A,CFA]/[A,CFA]/[A,CFA]/!<)! | %7
!>(! z/ [A,C^F]/[A,CF]/[A,CF]/ z/ [A,CF]/[A,CF]/[A,CF]/!>)! z/ [DG]/[DGB]/[DG]/ z/ [DG]/[DG]/[DG]/ | %8
 (!>!A3 B) B2 z2 | z4 z (GB)G | (!>!F3 E) E2!f! z/ [DAd]/[DAd]/[DAd]/ | [DGB]4 !fermata!z4 | %12
!p!!<(! z/ [F,A,D]/[F,A,D]/[F,A,D]/ z/ [F,A,D]/[F,A,D]/[F,A,D]/!<)!!>(! z/ [F,A,D]/[F,A,D]/[F,A,D]/ z/ [E,A,^C]/[E,A,C]/!>)![E,A,C]/ | %13
 z/ [F,A,D]/[F,A,D]/[F,A,D]/ z/ [F,A,D]/[F,A,D]/[F,A,D]/ z/ [A,DF]/[A,DF]/[A,DF]/ z/ [A,DF]/[A,DF]/[A,DF]/ | %14
 z/ [CFA]/[CFA]/[CFA]/ z/ [CFA]/[CFA]/[CFA]/ z/ [CFA]/[CFA]/[CFA]/ z/ [CFA]/[CFA]/[CFA]/ | %15
 z/ [B,CG]/[B,CG]/[B,CG]/ z/ [B,CG]/[B,CG]/[B,CG]/ z/ [A,CF]/[A,CF]/[A,CF]/ z/ [A,CF]/[A,CF]/[A,CF]/ | %16
!<(! z/ [G,CG]/[G,CG]/[G,CG]/ z/ [G,CG]/[G,CG]/[G,CG]/ z/ [A,DF]/[A,DF]/[A,DF]/ z/ [A,DF]/[A,DF]/[A,DF]/!<)! | %17
!>(! z/ [G,DF]/[G,DF]/[G,DF]/ z/ [G,DF]/[G,DF]/[G,DF]/ z/ [G,CE]/[G,CE]/[G,CE]/ z/ [G,CE]/[G,CE]/[G,CE]/!>)! | %18
 z/ [G,CG]/[G,CG]/[G,CG]/"_cresc." z/ [CEG]/[CEG]/[CEG]/ z/ [A,CA]/[A,CA]/[A,CA]/ z/ [CFA]/[CFA]/[CFA]/ | %19
 z/ [DG=B]/[DGB]/[DGB]/"_cresc." z/ [DGB]/[DGB]/[DGB]/ z/ [DAc]/[DAc]/[DAc]/ z/ [DAc]/[DAc]/[DAc]/ | %20
!f! z/ [EGce]/[EGce]/[EGce]/ z/ [EGc]/[EGc]/[EGc]/ z/ [CEG]/[CEG]/[CEG]/ z/ [G,CE]/[G,CE]/[G,CE]/ | %21
 z/ [G,CE]/[G,CE]/[G,CE]/ z/ [G,CE]/[G,CE]/[G,CE]/ z/ [G,CE]/[G,CE]/[G,CE]/ z/ [G,=B,DF]/[G,B,DF]/[G,B,DF]/ | %22
 z/ [G,CE]/[G,CE]/[G,CE]/ z/ [CEG]/[CEG]/[CEG]/!p! z/ [CE]/[CE]/[CE]/ z/ [CE]/z/[C^F]/ | %23
 z/ [DG]/[DG]/[DG]/ z/ [DG]/[DG]/[DG]/ z/ [CG]/[CG]/[CG]/ z/ [CG]/[CG]/[CG]/ | %24
 z/ [CFA]/[CFA]/[CFA]/ z/ [DFG]/[DFG]/[DFG]/ z/ [CFG]/[CEG]/[CEG]/ z/ [E,G,C]/[E,G,C]/[E,G,C]/ | %25
 z4 z2 !>!c!>!c | !>!E2 z2 z2 !>!c!>!c | !>!G2 z2!pp!!>(! [CFA]4!>)! | %28
!p! [CGB]2 z2 [CFA]2!pp! !fermata![B,DG]2 | %29
!<(! z/ [A,CF]/[A,CF]/[A,CF]/ z/ [A,CF]/[A,CF]/[A,CF]/!<)!!>(! z/ [G,CF]/[G,CF]/[G,CF]/ z/ [G,B,CE]/[G,B,CE]/!>)![G,B,CE]/ | %30
 [A,CF]2 z2 !fermata!z4 | %31
!p! z/!<(! [A,CA]/[A,CA]/[A,CA]/ z/ [A,CA]/[A,CA]/[A,CA]/ z/ [A,^CG]/[A,CG]/[A,CG]/ z/ [A,DF]/[A,DF]/[A,DF]/!<)! | %32
!>(! z/ [A,EG]/[A,EG]/[A,EG]/ z/ [A,EG]/[A,EG]/[A,EG]/!>)! z/ [A,DF]/[A,DF]/[A,DF]/ z/ [DFA]/[DFA]/[DFA]/ | %33
 z/ [B,EG]/[B,EG]/[B,EG]/ z/ [B,EG]/[B,EG]/[B,EG]/ z/ [A,EG]/[A,EG]/[A,EG]/ z/ [A,EG]/[A,EG]/[A,EG]/ | %34
!<(! z/ [A,DF]/[A,DF]/[A,DF]/ z/ [A,^CE]/[A,CE]/[A,CE]/!<)!!>(! z/ [A,DG]/[A,DG]/[A,DG]/ z/ [A,DF]/[A,DF]/!>)![A,DF]/ | %35
 z/ [=B,DF]/[B,DF]/[B,DF]/ z/ [B,DE]/[B,DE]/[B,DE]/ z/ [A,^CE]/[A,CE]/[A,CE]/ z/ [A,CEA]/[A,CEA]/[A,CEA]/ | %36
!<(! z/ [A,=C^FA]/[A,CFA]/[A,CFA]/ z/ [A,CFA]/[A,CFA]/[A,CFA]/ z/ [A,CFA]/[A,CFA]/[A,CFA]/ z/ [A,CFA]/[A,CFA]/!<)![A,CFA]/ | %37
!>(! z/ [A,C^F]/[A,CF]/[A,CF]/ z/ [A,CF]/[A,CF]/!>)![A,CF]/ z/ [DG]/([DGB]/[DG]/ z/ [DG]/[DG]/[DG]/ | %38
 !>!A3 B B2) z2 | z4 z (G!>!BG | F3 E E2)!mf! z/ [DAd]/[DAd]/[DAd]/ | [DGB]4 !fermata!z4 | %42
!p! z/ [F,A,D]/[F,A,D]/[F,A,D]/ z/ [F,A,D]/[F,A,D]/[F,A,D]/ z/ [E,A,D]/[E,A,D]/[E,A,D]/ z/ [E,A,^C]/[E,A,C]/[E,A,C]/ | %43
!>(! z/ [F,A,D]/[F,A,D]/[F,A,D]/ z/ [F,A,D]/[F,A,D]/[F,A,D]/ [F,A,D]2!>)! z2 |] %44
V:4
 [D,,D,] z [D,,D,] z [D,,D,] z [D,,D,] z | [D,,D,] z [D,,D,] z [E,,D,] z [D,,D,] z | %2
[K:F] [^C,,^C,] z [C,,C,] z [D,,D,] z [D,,D,] z | [E,,E,] z [D,,D,] z [^C,,^C,] z [C,,C,] z | %4
 [D,,D,] z [A,,,A,,] z [B,,,B,,] z [A,,,A,,] z | %5
 [^G,,,^G,,] z [G,,,G,,] z [A,,,A,,] z [A,,,A,,] z | [D,,D,] z [D,,D,] z [D,,D,] z [D,,D,] z | %7
 [D,,D,] z [D,,D,] z [G,,G,] z G, z | D, z D, z G,, z G,, z | G,, z G,, z G, z G, z | %10
 G, z G, z G, z [F,,F,]2 | [G,,G,]4 !fermata!z4 | A,, z A,, z A,, z A,,, z | %13
 [D,,D,] z [D,,D,] z [D,,D,] z [D,,D,] z | [F,,F,] z [F,,F,] z [F,,F,] z [F,,F,] z | %15
 E,, z E,, z F,, z F, z | E, z E, z D, z D, z | =B,, z B,, z C, z C, z | %18
 [E,,E,] z [E,,E,] z [F,,F,] z [F,,F,] z | [F,,F,] z [F,,F,] z [^F,,^F,] z [F,,F,] z | %20
 [G,,G,] z [G,,G,] z [G,,G,] z G,, z | [G,,,G,,] z [G,,,G,,] z [G,,,G,,] z [G,,,G,,] z | %22
 [C,,C,] z [C,,C,] z (!>!C,2 _B,,A,, | G,,2) (G,=F, E,4) | (F,2 =B,,2 C,2 C,,2) | %25
 z/ [F,A,]/[F,A,]/[F,A,]/ z/ [F,A,]/[F,A,]/[F,A,]/ z/ F,/F,/F,/ z/ F,/F,/F,/ | %26
 z/ [E,G,]/[E,G,]/[E,G,]/ z/ [E,A,]/[E,A,]/[E,A,]/ z/ [F,A,]/[F,A,]/[F,A,]/ z/ [F,A,]/[F,A,]/[F,A,]/ | %27
 z/ [G,B,]/[G,B,]/[G,B,]/ z/ [G,B,C]/[G,B,C]/[G,B,C]/ F,4 |"^col  canto" E,2 z2 F,2 !fermata!B,,2 | %29
 C, z C, z C, z C,, z | F,,2 z2 !fermata!z4 | [F,,F,] z [F,,F,] z [E,,E,] z [D,,D,] z | %32
 [^C,,^C,] z [C,,C,] z [D,,D,] z [D,,D,] z | [E,,E,] z [D,,D,] z [^C,,^C,] z [C,,C,] z | %34
 [D,,D,] z [A,,,A,,] z [B,,,B,,] z [A,,,A,,] z | %35
 [^G,,,^G,,] z [G,,,G,,] z [A,,,A,,] z [A,,,A,,] z | [D,,D,] z [D,,D,] z [D,,D,] z [D,,D,] z | %37
 [D,,D,] z [D,,D,] z [G,,G,] z G, z | D, z D, z G,, z G,, z | G,, z G,, z G, z G, z | %40
 G, z G, z G, z [F,,F,]2 | [G,,G,]4 !fermata!z4 | A,, z A,, z A,, z A,,, z | D,, z D,, z D,,2 z2 |] %44
V:5
 x8 | x8 |[K:F] x8 | x8 | x8 | x8 | x8 | x4 x BdB | %8
 z/ [CD]/[CD]/[CD]/ z/ [CD]/[CD]/[CD]/ z/ [B,D]/[B,D]/[B,D]/ z/ [B,D]/[B,D]/[B,D]/ | %9
 z/ [B,^C]/[B,C]/[B,C]/ z/ [B,C]/[B,C]/[B,C]/ z/ [B,C]/[B,C]/[B,C]/ z/ [B,C]/[B,C]/[B,C]/ | %10
 z/ [B,^C]/[B,C]/[B,C]/ z/ [B,C]/[B,C]/[B,C]/ z/ [B,C]/[B,C]/[B,C]/ x2 | x8 | x8 | x8 | x8 | x8 | %16
 x8 | x8 | x8 | x8 | x8 | x8 | x4 !>!G2 (GA) | B2 (Bd) (!>!d c2 B) | x8 | %25
 z/ C/C/C/ z/ C/C/C/ z/ D/D/D/ z/ D/D/D/ | z/ C/C/C/ z/ C/C/C/ x4 | x8 | x8 | x8 | x8 | x8 | x8 | %33
 x8 | x8 | x8 | x8 | x4 x B!>!dB | %38
 z/ [CD]/[CD]/[CD]/ z/ [CD]/[CD]/[CD]/ z/ [B,D]/[B,D]/[B,D]/ z/ [B,D]/[B,D]/[B,D]/ | %39
 z/ [B,^C]/[B,C]/[B,C]/ z/ [B,C]/[B,C]/[B,C]/ z/ [B,C]/[B,C]/[B,C]/ z/ [B,C]/[B,C]/[B,C]/ | %40
 z/ [B,^C]/[B,C]/[B,C]/ z/ [B,C]/[B,C]/[B,C]/ z/ [B,C]/[B,C]/[B,C]/ x2 | x8 | x8 | x8 |] %44
V:6
 x8 | x8 |[K:F] x8 | x8 | x8 | x8 | x8 | x4 z/ B,/B,/B,/ z/ B,/B,/B,/ | %8
 z/ ^F,/F,/F,/ z/ F,/F,/F,/ z/ G,/G,/G,/ z/ G,/G,/G,/ | z/ G,/G,/G,/ z/ G,/G,/G,/ x4 | x8 | x8 | %12
 x8 | x8 | x8 | x8 | x8 | x8 | x8 | x8 | x8 | x8 | x8 | x8 | x8 | A,, z A,, z B,, z B,, z | %26
 C, z C, z D, z D, z | E, z E, z x4 | x8 | x8 | x8 | x8 | x8 | x8 | x8 | x8 | x8 | %37
 x4 z/ B,/B,/B,/ z/ B,/B,/B,/ | z/ ^F,/F,/F,/ z/ F,/F,/F,/ z/ G,/G,/G,/ z/ G,/G,/G,/ | x8 | x8 | %41
 x8 | x8 | x8 |] %44

